X:679
T: Miss Lyall
Z: Piano Box Version by Martin Fleischmann
H: Created 2015-04-09 /  Last Modified 2015-04-25
R: strathspey
M: 4/4
L: 1/8
K: Ador
Bc>B|: A<A,A,>B, C>DE>F | G>A (3DEF G>B c>B | A<A,A,>B, C>DE>B | (3cBA (3BA^G  A>Bc>B|
A<A,A,>B, C>DE>F | G2 G>F G>B c>d  | (3edc (3Bcd (3cdc (3EFG  | (3ABc (3BA^G A4:|
Bc>d |:e<aa>f g>fg>d | e<aa>f g>A (3Bcd | e<aa>f g>fg>d  | (3eae (3dcB A>Bc>d |
e<aa>f g>fg>d | e<aa>f g>f g>a | (3bag (3fga (3gag (3Bcd  |1 (3eae (3dcB A>Bc>d :|2 (3eae (3dcB (3cdc (3BcB  ||

